X:333
T:Ships Are Sailing
Z: id:dc-reel-310
M:C
L:1/8
K:E Dorian
ed|Beed BcdB|ADFD ADFD|EDEF GFGA|Beef gfed|!
Beed BcdB|ADFD ADFD|EDEF GFGA|Beed e2:|!
ef|gfga bgeg|fefg afdf|gfga bgeg|fedf e2ef|!
gfga bgeg|fefg afdf|g2bg f2af|edef gf:|!

